img/icons/place-star.svg

<svg width="15" height="14" viewBox="0 0 15 14" fill="none" xmlns="http://www.w3.org/2000/svg">
<path d="M8.09596 0.337302L10.2567 3.96043L14.4596 4.8495C14.8293 4.92749 15.0643 5.28401 14.9844 5.64721C14.9548 5.78313 14.884 5.90123 14.7882 5.99036L11.9612 9.08094L12.3924 13.2634C12.4289 13.631 12.1551 13.9586 11.7786 13.9942C11.6554 14.0054 11.5391 13.9853 11.4341 13.9407L7.49816 12.2495L3.5645 13.943C3.21768 14.0923 2.81154 13.9385 2.65867 13.5976C2.60391 13.475 2.58794 13.3436 2.61075 13.221L3.03743 9.08094L0.173895 5.95248C-0.0770922 5.67618 -0.0542752 5.25281 0.228656 5.00771C0.319924 4.92749 0.427164 4.87401 0.541249 4.85173L0.538967 4.8495L4.74186 3.96043L6.90491 0.335073C7.0943 0.0142058 7.51413 -0.0949783 7.84269 0.0899661C7.95222 0.152357 8.03664 0.239259 8.09596 0.337302Z" fill="#FFB800"/>
</svg>

<svg width="15" height="14" fill="none" xmlns="http://www.w3.org/2000/svg"><path d="m8.096.337 2.16 3.623 4.204.89a.67.67 0 0 1 .524.797.66.66 0 0 1-.196.343l-2.827 3.09.431 4.183a.672.672 0 0 1-.613.731.71.71 0 0 1-.345-.053l-3.936-1.692-3.934 1.694a.693.693 0 0 1-.905-.345.639.639 0 0 1-.048-.377l.426-4.14L.174 5.952a.658.658 0 0 1 .055-.944.667.667 0 0 1 .312-.156L.54 4.849l4.203-.889L6.905.335a.695.695 0 0 1 1.191.002Z" fill="#FFB800"/></svg>
